X: 57
I: linebreak $
T: Lady Spellor
T: longways for four couples
P: 
C: 
N: 
M: 6/4
L: 1/8
K: C major
P: A
 |: "G"d4d2 d4d2 | "G"d6 B6 | "C"c4B2 c4d2 | "C"e6 c6 | "D"A4A2 A4B2 | "C"c4d2 e4c2 | 
"G"d4c2 B4A2 | "G"B6 G6 :| 

